X:1
T:Title
%%score { 1 | 2 }
L:1/8
Q:1/4=124
M:2/2
K:A
V:1 treble nm="Grand Piano"
V:2 bass 
V:1
 z2 [Ec]2 [EA]2 [DF]2 | [CA]6 E2 | F2 G2 A2 B2 |[M:3/4] c3 E E2 |[M:1/4] [Ee]2 | %5
[M:4/4] [Fd]2 [Ec]2 [^DB]2 [DF]2 | A3 G G2 E2 | [Ec]2 [DB]2 [CA]2 [EG]2 |[M:3/4] [EG]3 [DF] [CE]2 | %9
[M:1/4] E2 |[M:4/4] F4 B4 | [CA]8 |] %12
V:2
 z2 [A,,A,]2 [C,A,]2 [D,A,]2 | [A,,A,]6 [C,A,]2 | [D,A,D]2 [E,A,D]2 [F,A,D]2 [G,DE]2 | %3
[M:3/4] [A,CE]3 [C,A,] [C,A,]2 |[M:1/4] [C,A,]2 |[M:4/4] [D,A,]2 [E,A,]2 [F,A,]2 [B,,A,]2 | %6
 [E,B,^D]3 [E,B,E] [E,B,E]2 [D,B,]2 | [C,A,]2 [E,G,]2 [F,A,]2 [D,A,]2 | %8
[M:3/4] [D,A,]3 [C,A,] [A,,A,]2 |[M:1/4] [C,A,]2 |[M:4/4] [D,A,D]4 [E,G,D]4 | [A,,A,]8 |] %12

